icons/cross-squareB.svg

<svg width="24" height="24" viewBox="0 0 24 24" fill="none" xmlns="http://www.w3.org/2000/svg">
<path d="M15 21H9C5.7 21 3 18.3 3 15V9C3 5.7 5.7 3 9 3H15C18.3 3 21 5.7 21 9V15C21 18.3 18.3 21 15 21Z" fill="black"/>
<path fill-rule="evenodd" clip-rule="evenodd" d="M9 3.75C6.11421 3.75 3.75 6.11421 3.75 9V15C3.75 17.8858 6.11421 20.25 9 20.25H15C17.8858 20.25 20.25 17.8858 20.25 15V9C20.25 6.11421 17.8858 3.75 15 3.75H9ZM2.25 9C2.25 5.28579 5.28579 2.25 9 2.25H15C18.7142 2.25 21.75 5.28579 21.75 9V15C21.75 18.7142 18.7142 21.75 15 21.75H9C5.28579 21.75 2.25 18.7142 2.25 15V9Z" fill="black"/>
<path fill-rule="evenodd" clip-rule="evenodd" d="M9.26966 9.26972C9.56255 8.97683 10.0374 8.97683 10.3303 9.26972L14.6303 13.5697C14.9232 13.8626 14.9232 14.3375 14.6303 14.6304C14.3374 14.9233 13.8625 14.9233 13.5696 14.6304L9.26966 10.3304C8.97676 10.0375 8.97676 9.56261 9.26966 9.26972Z" fill="white"/>
<path fill-rule="evenodd" clip-rule="evenodd" d="M14.6303 9.26972C14.9232 9.56261 14.9232 10.0375 14.6303 10.3304L10.3303 14.6304C10.0374 14.9233 9.56255 14.9233 9.26966 14.6304C8.97676 14.3375 8.97676 13.8626 9.26966 13.5697L13.5696 9.26972C13.8625 8.97683 14.3374 8.97683 14.6303 9.26972Z" fill="white"/>
</svg>

<svg xmlns="http://www.w3.org/2000/svg" fill="none" viewBox="0 0 24 24">
  <path fill="#000" d="M15 21H9c-3.3 0-6-2.7-6-6V9c0-3.3 2.7-6 6-6h6c3.3 0 6 2.7 6 6v6c0 3.3-2.7 6-6 6Z"/>
  <path fill="#000" fill-rule="evenodd" d="M9 3.75C6.114 3.75 3.75 6.114 3.75 9v6c0 2.886 2.364 5.25 5.25 5.25h6c2.886 0 5.25-2.364 5.25-5.25V9c0-2.886-2.364-5.25-5.25-5.25H9ZM2.25 9c0-3.714 3.036-6.75 6.75-6.75h6c3.714 0 6.75 3.036 6.75 6.75v6c0 3.714-3.036 6.75-6.75 6.75H9c-3.714 0-6.75-3.036-6.75-6.75V9Z" clip-rule="evenodd"/>
  <path fill="#fff" fill-rule="evenodd" d="M9.27 9.27a.75.75 0 0 1 1.06 0l4.3 4.3a.75.75 0 0 1-1.06 1.06l-4.3-4.3a.75.75 0 0 1 0-1.06Z" clip-rule="evenodd"/>
  <path fill="#fff" fill-rule="evenodd" d="M14.63 9.27a.75.75 0 0 1 0 1.06l-4.3 4.3a.75.75 0 1 1-1.06-1.06l4.3-4.3a.75.75 0 0 1 1.06 0Z" clip-rule="evenodd"/>
</svg>
